X:1
T:Mr McDonald -- Gordon Castle
T:Mr McDonald -- Gordon Castle
T:William Marshall
C:William Marshall
%%score { ( 1 2 ) 3 }
L:1/8
M:4/4
K:D
V:1 treble 
V:2 treble 
V:3 bass 
V:1
"^Slowly" F | (D2 A>).F D<DA>F | (D2 A>).F BE-E.F | (D2 A>).F D<D A>G | F>dE>c d>D D :| g | %6
 f>de>c dAFD | G>BF>A Ee-e.g | f>de>c dAFD | G>B A/G/F/E/ Dd-d.g | f>de>c dAFD | G>BF>A Ee-e.g | %12
 f>de>c d>AB>G | F<dE>c d<D D |] %14
V:2
 x | D2 x6 | D2 x6 | D2 x6 | x7 :| x | x8 | x8 | x8 | x8 | x8 | x8 | x8 | x7 |] %14
V:3
 z | D,2 D,2 D,2 D,2 | D,2 D,2 E,2 E,2 | D,2 D,2 D,2 D,2 | A,2 A,,2 D,2 D, :| z | D,2 A,2 F,2 D,2 | %7
 E,2 D,2 [A,,E,]2 [A,,E,]2 | D,2 A,2 F,2 D,2 | G,2 A,2 D,2 D, z | D,2 A,2 F,2 D,2 | %11
 E,2 D,2 [A,,E,]2 [A,,E,]2 | D,2 G,2 F,2 G,2 | A,2 A,,2 D,2 D, |] %14

